X: 522
T: Vrapcheto
O: Bulgaria
M: 2/4
L: 1/8
Q: 1/4=120
K: APhr
%%MIDI program 65
F: http://www.youtube.com/watch?v=Ir4Qr6qTiAQ
F: http://www.youtube.com/watch?v=WnZj_4kr1fQ
|CccB|AF3 |GABA|G4   |B2B2|
 A4  |ABc2|cBBA| G2c2|A4  |



